hoodie_driver/public/indicator_icon.svg

<svg width="32" height="32" viewBox="0 0 32 32" fill="none" xmlns="http://www.w3.org/2000/svg">
<path fill-rule="evenodd" clip-rule="evenodd" d="M16.5303 20.8839C16.2374 21.1768 15.7626 21.1768 15.4697 20.8839L7.82318 13.2374C7.53029 12.9445 7.53029 12.4697 7.82318 12.1768L8.17674 11.8232C8.46963 11.5303 8.9445 11.5303 9.2374 11.8232L16 18.5858L22.7626 11.8232C23.0555 11.5303 23.5303 11.5303 23.8232 11.8232L24.1768 12.1768C24.4697 12.4697 24.4697 12.9445 24.1768 13.2374L16.5303 20.8839Z" fill="white"/>
</svg>

<svg xmlns="http://www.w3.org/2000/svg" width="32" height="32" fill="none" xmlns:v="https://vecta.io/nano"><path fill-rule="evenodd" d="M16.53 20.884a.75.75 0 0 1-1.061 0l-7.647-7.647a.75.75 0 0 1 0-1.061l.354-.354a.75.75 0 0 1 1.061 0L16 18.586l6.763-6.763a.75.75 0 0 1 1.061 0l.354.354a.75.75 0 0 1 0 1.061l-7.646 7.647z" fill="#fff"/></svg>
